X:1
T:Title
%%score { ( 1 3 ) | ( 2 4 ) }
L:1/8
M:9/8
K:Eb
V:1 treble nm="Grand Piano"
V:3 treble 
V:2 bass 
V:4 bass 
V:1
 z3 z3[Q:1/4=113] [EG]2 [FA] | [GB]3- [GB]2 [GB] [Ac][GB][_G=A] | [GB]3 [Ge]3 [EG]2 [EB] | .B6 z3 | %4
[M:3/4] [EG]6 |[M:3/8] [EG]2 [FA] |[M:9/8] [GB]3- [GB]2 [GB] [Ac][GB][_G=A] | %7
 [GB]3 [Ge]3 [Ge]2 [Ge] | d3- ded cG=A |[M:3/4] [DB]6 |[M:12/8] z3 [Ac]6- [Ac]2 z | %11
 z3 [GB]3- [GB]6 | z3 [DF]6- [DF]2 z | z3 [EG]3- [EG]6 | z3 B6- B2 z | %15
[M:27/16] z/ z/ z/ z/ z [Ec]-<[Ec-]c/-c/-c/-c/-c-<c z/ z/ z/ z/ z/ z/ z/ z | %16
[M:6/4] d2 c B2 e G2 [Ec] [Dc]2 [DB] |[M:21/16] z3 E3/2-E3/2-E3/2- E3- | E3 z3/2 z3/2 z3/2 z3 |] %19
V:2
 z3 z3 [E,B,]2 [E,B,] | [E,E]3- [E,E]2 [E,E] [E,E]2 [E,E] | [E,E]3 [E,B,]3 [E,B,]2 [E,G,] | %3
 F,3- F, z [B,,B,] [B,,B,]2 [B,,B,] |[M:3/4] [E,B,]6 |[M:3/8] [E,B,]2 [E,B,] | %6
[M:9/8] [E,E]3- [E,E]2 [E,E] [E,E]2 [E,E] | [E,E]3 [E,B,]3 [E,B,]2 [E,B,] | %8
 [F,F]3- [F,F]-[F,CF][F,B,F] [F,E]-[F,B,E][F,CE] |[M:3/4] [B,,B,]6 | %10
[M:12/8] [E,E]2 [E,E] [A,E]2 A, A,A,A, A,2[K:treble] G | .[A,C]3[K:bass] z3 z6 | %12
 [E,B,]2 [E,B,] [B,,B,]2 B,, B,,2 B,, B,,2 D | C,2 B,, E,2 E, E,2 E, E,3 | z3[K:bass] G6- G2 z | %15
[M:27/16] z FE,A,-<A,A,A,-<A,A,[K:treble][A,C]/-[A,C]/-[A,C]/-[A,C]/-[A,C]/-[A,C]-<[A,C] | %16
[M:6/4] B2 A G2 G[K:bass] [E,B,E]2 [A,,A,] [B,,F,]2 [B,,F,] |[M:21/16] z3 [G,B,]3 z3/2 z3 | %18
 z21/2 |] %19
V:3
 x9 | x9 | x9 | D3- D-[B,DF][EG] [FA]2 [DA] |[M:3/4] x6 |[M:3/8] x3 |[M:9/8] x9 | x9 | x9 | %9
[M:3/4] x6 |[M:12/8] [GB]2 [GB] z2 E EEE E2 B | AB[EAc] E2 E EEE E3 | %12
 [Ge]2 [EG] z2 B, B,2 B, B,2 F | [G,CE]2 [B,DF] B,2 B, B,2 B, B,3 | G2 A z3 E2 E E2 [EGB] | %15
[M:27/16] [EG]A[EGB]A-<A-[EA-][EA]-<[EA-][EA-][Ae]/-[Ae]/-[Ae]/-[Ae]/-[Ae]/-[Ae]-<[Ae] | %16
[M:6/4] x12 |[M:21/16] [DA]->[DA]D z3 CC/-C/=B,_B,3/2- | B,3 z3/2 z3/2 z3/2 z3 |] %19
V:4
 x9 | x9 | x9 | B,,6 z3 |[M:3/4] x6 |[M:3/8] x3 |[M:9/8] x9 | x9 | .B,6 .=A,3 |[M:3/4] x6 | %10
[M:12/8] x11[K:treble] x | EE[K:bass]A, E,2 E, E,E,E, E,3 | x12 | x12 | %14
 E2 F[K:bass] z3 E,2 E, E,2 E, | %15
[M:27/16] [E,B,]-<[E,B,] z/ z/ z/ z/ z/ z/ z/ z/ z/ z/ z/ z/ z/ z/[K:treble] z/ z/ z/ z/ z/ z/ z/ z | %16
[M:6/4] x6[K:bass] x6 | %17
[M:21/16] [B,,F,]->[B,,F,][B,,A,B,] E,3- [E,-A,][E,A,]/-[E,-A,]/[E,-A,][E,G,]3/2- | %18
 [E,G,]3 z3/2 z3/2 z3/2 z3 |] %19

